X: 10592
M: C|
L: 1/8
K: Eb
uc |\
ug |\
(eg)ge (df)fd | (eg)ge (fd)Bd | (eg)ge (df)fd | cafd e2(eg) |
egeg dfdf | cece fdBg | agfe dcBA | Ggfd "_D.C."e2 "_Fine."(e |]


